public/images/css-3.svg

<svg width="46" height="53" viewBox="0 0 46 53" fill="none" xmlns="http://www.w3.org/2000/svg">
<g id="css3">
<path id="polygon2989" d="M45.5017 0.572876L41.3681 46.8797L22.7874 52.0309L4.25788 46.8869L0.128662 0.572876H45.5017Z" fill="#264DE4"/>
<path id="polygon2991" d="M37.8293 43.931L41.3617 4.35974H22.8152V48.0935L37.8293 43.931Z" fill="#2965F1"/>
<path id="polygon2993" d="M9.59485 21.537L10.104 27.2172H22.8152V21.537H9.59485Z" fill="#EBEBEB"/>
<path id="polygon2995" d="M22.8152 10.0399H22.7956H8.5719L9.08825 15.7202H22.8152V10.0399Z" fill="#EBEBEB"/>
<path id="polygon2997" d="M22.8151 42.1988V36.289L22.7902 36.2956L16.4641 34.5874L16.0597 30.0572H12.9857H10.3577L11.1535 38.976L22.789 42.2061L22.8151 42.1988Z" fill="#EBEBEB"/>
<path id="polygon3005" d="M29.7901 27.217L29.1308 34.5838L22.7955 36.2938V42.2033L34.4403 38.976L34.5257 38.0163L35.8605 23.0621L35.9991 21.5368L37.0246 10.0399H22.7955V15.7202H30.7995L30.2827 21.5368H22.7955V27.217H29.7901Z" fill="white"/>
</g>
</svg>

<svg xmlns="http://www.w3.org/2000/svg" width="46" height="53" fill="none"><path fill="#264DE4" d="M45.502.573 41.368 46.88l-18.58 5.15-18.53-5.143L.128.573h45.374Z"/><path fill="#2965F1" d="M37.83 43.931 41.361 4.36H22.815v43.733l15.014-4.162Z"/><path fill="#EBEBEB" d="m9.595 21.537.509 5.68h12.711v-5.68H9.595ZM22.815 10.04H8.572l.516 5.68h13.727v-5.68ZM22.815 42.199v-5.91l-.025.007-6.326-1.709-.404-4.53h-5.702l.795 8.919 11.636 3.23.026-.007Z"/><path fill="#fff" d="m29.79 27.217-.66 7.367-6.334 1.71v5.91l11.644-3.228.086-.96 1.334-14.954.14-1.525 1.025-11.497h-14.23v5.68H30.8l-.516 5.817h-7.488v5.68h6.995Z"/></svg>
